X: 135010
Q: "Irish Reel."
M: C
L: 1/8
K: D
|: uG |\
ug |\
fded fded | Addc Addg |
fded fded | cAGA (ED)D2 |\
fded fded | Addc Adde |\
fgag fdec | cAGA (ED) D |]


